theme/int/static/images/logo/cloud-transparent-mono-48-48.svg

<?xml version="1.0" encoding="UTF-8"?>
<svg width="59px" height="60px" viewBox="0 0 59 60" version="1.1" xmlns="http://www.w3.org/2000/svg" xmlns:xlink="http://www.w3.org/1999/xlink">
    <title>HPI Schul-Cloud Copy 2</title>
    <g id="HPI-Schul-Cloud-Copy-2" stroke="none" stroke-width="1" fill="none" fill-rule="evenodd">
        <path d="M36.3102002,14.008501 C40.3086001,13.869301 44.3700001,15.432301 46.5564001,19.2363009 L46.5564001,19.2363009 L40.6884001,25.0977009 C40.5612001,25.2243009 40.3494001,25.5219009 40.3074001,25.7337009 L40.3074001,25.7337009 L37.8636001,31.7631008 C37.7856001,31.9197008 37.7670001,32.0763008 37.7766001,32.2269008 C37.3548002,32.4897008 36.9390002,32.8623008 36.6792002,33.0003008 C35.5890002,33.5817008 34.6458002,33.3309008 33.7314002,32.5509008 C32.8374002,31.7883008 32.1648002,30.7977008 31.1490002,30.1755008 C30.1938002,29.5917008 29.1210002,29.3985008 28.0620002,29.8155008 C26.9838002,30.2403008 26.2410003,31.0233008 25.4514003,31.8339008 C24.7644003,32.5395008 23.8374003,33.4725008 22.7514003,33.3441008 C21.7314003,33.2229008 21.0582003,32.1267008 20.3400003,31.5027008 C19.5612003,30.8247008 18.6072003,30.4071008 17.5692003,30.7011008 C16.6410003,30.9645008 15.9426003,31.6305008 15.2304004,32.2407008 C14.9472004,32.4825008 14.5320004,32.7441008 14.5830004,33.1755008 C14.6388004,33.6519008 15.1686004,33.8115008 15.5580004,33.6369008 C15.7753718,33.5395294 15.942784,33.3812273 16.0999805,33.2112542 L16.3330814,32.9536985 L16.3330814,32.9536985 L16.4532003,32.8299008 C16.8132003,32.4795008 17.2698003,32.1303008 17.7438003,31.9521008 C18.8196003,31.5483008 19.5714003,32.4297008 20.2440003,33.1347008 C20.9010003,33.8235008 21.6300003,34.4739008 22.6260003,34.5465008 C23.6496003,34.6209008 24.5856003,34.1331008 25.3572003,33.5055008 C26.6244003,32.4741008 28.0638002,30.1281008 29.9742002,30.8895008 C32.1396002,31.7529008 33.1908002,34.9383008 35.8998002,34.5333008 C36.3414002,34.4679008 38.0274001,33.7875008 38.7714001,33.0921008 C38.8812001,33.0819008 38.9922001,33.0567008 39.1032001,33.0015008 L39.1032001,33.0015008 L45.1392001,30.5601008 C45.3522001,30.5187008 45.6492001,30.3069008 45.7764001,30.1797008 L45.7764001,30.1797008 L51.1518,24.8109009 C52.9362,26.2167009 54,28.1907009 54,30.3003008 C54,34.5525008 49.8624,37.9671008 44.7648001,37.9671008 L44.7648001,37.9671008 L17.4804003,37.9671008 C13.3428004,37.9671008 10.1046004,38.3865008 7.58640043,36.2301008 C3.98820046,33.5349008 6.44640044,25.3887009 15.6216004,27.1857009 C15.6216004,22.6935009 20.2986003,20.0577009 25.2762003,22.0347009 C26.0556003,17.183101 31.1526002,14.187901 36.3102002,14.008501 Z M47.2485601,20.6632209 C47.3745601,20.9812209 47.4861601,21.3142209 47.5881601,21.6568209 L47.5881601,21.6568209 L42.9675601,26.2726209 C42.2463601,26.9932209 42.0765601,27.9244209 42.5433601,28.3906209 C43.0095601,28.8562209 43.9425601,28.6870209 44.6631601,27.9670209 L44.6631601,27.9670209 L49.05756,23.5774209 C49.33896,23.6974209 49.61376,23.8252209 49.87596,23.9680209 L49.87596,23.9680209 L45.2673601,28.5700209 C44.9277601,28.9090209 44.8005601,29.3752208 44.8437601,29.7562208 L44.8437601,29.7562208 L41.7051601,30.8572208 L40.0107601,29.1646209 L41.1123601,26.0290209 C41.4939601,26.0716209 41.9607601,25.9450209 42.3003601,25.6060209 L42.3003601,25.6060209 Z" id="Bildmarke" fill="#D9174C"></path>
        <text id="Int." font-family="PTSans-Narrow, PT Sans Narrow" font-size="12" font-style="condensed" font-weight="normal" letter-spacing="7.4951728" fill="#17212A">
            <tspan x="15" y="53">INT.</tspan>
        </text>
    </g>
</svg>

<svg xmlns="http://www.w3.org/2000/svg" width="59" height="60" fill-rule="evenodd" xmlns:v="https://vecta.io/nano"><path d="M36.31 14.009c3.998-.139 8.06 1.424 10.246 5.228h0l-5.868 5.861c-.127.127-.339.424-.381.636h0l-2.444 6.029c-.078.157-.097.313-.087.464-.422.263-.838.635-1.097.773-1.09.581-2.033.331-2.948-.449-.894-.763-1.567-1.753-2.582-2.375-.955-.584-2.028-.777-3.087-.36-1.078.425-1.821 1.208-2.611 2.018-.687.706-1.614 1.639-2.7 1.51-1.02-.121-1.693-1.217-2.411-1.841-.779-.678-1.733-1.096-2.771-.802-.928.263-1.627.929-2.339 1.54-.283.242-.698.503-.647.935.056.476.586.636.975.461.217-.097.385-.256.542-.426l.233-.258h0l.12-.124c.36-.35.817-.7 1.291-.878 1.076-.404 1.828.478 2.5 1.183.657.689 1.386 1.339 2.382 1.412 1.024.074 1.96-.413 2.731-1.041 1.267-1.031 2.707-3.377 4.617-2.616 2.165.863 3.217 4.049 5.926 3.644.442-.065 2.128-.746 2.872-1.441.11-.01.221-.035.332-.091h0l6.036-2.441c.213-.041.51-.253.637-.38h0l5.375-5.369C52.936 26.217 54 28.191 54 30.3c0 4.252-4.138 7.667-9.235 7.667h0H17.48c-4.138 0-7.376.419-9.894-1.737-3.598-2.695-1.14-10.841 8.035-9.044 0-4.492 4.677-7.128 9.655-5.151.779-4.852 5.876-7.847 11.034-8.026zm10.938 6.655a11.99 11.99 0 0 1 .34.994h0l-4.621 4.616c-.721.721-.891 1.652-.424 2.118s1.399.296 2.12-.424h0l4.394-4.39c.281.12.556.248.818.391h0l-4.609 4.602a1.48 1.48 0 0 0-.424 1.186h0l-3.139 1.101-1.694-1.693 1.102-3.136c.382.043.848-.084 1.188-.423h0z" fill="#d9174c"/><path d="M16.848 53v-8.4h-.9V53h.9zm14.131.132V44.6h-.864v5.316l.132 1.26h-.048l-.492-1.26-3.108-5.448h-.54V53h.864v-5.328l-.132-1.32h.036l.516 1.32 3.084 5.46h.552zM42.374 53v-7.572h2.064V44.6H39.41v.828h2.064V53h.9zm9.799.144a.58.58 0 0 0 .438-.168c.108-.112.162-.284.162-.516 0-.224-.054-.392-.162-.504a.58.58 0 0 0-.438-.168.58.58 0 0 0-.438.168c-.108.112-.162.28-.162.504 0 .232.054.404.162.516a.58.58 0 0 0 .438.168z" fill="#17212a" fill-rule="nonzero"/></svg>
